X:1
T: The Captain's Fancy
T: Mr Stewart Trotter's Reel
R:Reel
Q: 232
K:E
M:4/4
L:1/8
|:B|e2 ge fg eB|e1/2f1/2g1/2a1/2 bg af fg|e2 Bg fd eB|cA FB GE EB|
e2 ge fg eB|e1/2f1/2g1/2a1/2 bg af fg|e2 Bg fd eB|cA FB GE EB|
EB GB cE BE|B,E GE AF FA|EB GB eE cE|B,C EF GE EB|
EB GB cE BE|AF GE AF FA|GB eB cA af|gb fa ge e:|
